X:3498
T:Mazurka de Limousin
C:Trad
L:1/8
M:3/4
O:France
R:Mazurka
K:Dm
ded|B2Bded|A2A2GF|E2AGFE|F2Dded|B2Bded|A2A2GF|AGF2E2|1D3:|2D6|
|:DEFGA=B|c2G2E2|DEFDGF|E6|DEFGA=B|c2G2E2|DEFAGE|1D6:|2D3||

